T: Metsäkukkia
M: 3/4
L: 1/8
K: Amin
E|F2E|A2B|c3-|cAB|cAB|cdc|B3-|B2E|\F2E|B2c|d3-|dBc|dBc|def|e3-|e2E|\F2E|A2B|c3-|cAB|cBc|dcd|e3-|efe|\dcB-|Bed|cBA-|Adc|BcB|BA^G|A3-|1A2:|2Aec|:\e3-|eec|e3-|eee|f3-|ffd|f3-|fBc|\d2d|dcd|e3-|edc|B2f|e2^G|A3-|1Aec:|2A2|]
